content/packs/basic_addition/pims/grid_counting/field/graphics/icons/ten_block_icon.svg

<svg width="50" xmlns="http://www.w3.org/2000/svg" height="50" fill="none"><defs><clipPath id="a" class="frame-clip frame-clip-def"><rect rx="0" ry="0" width="50" height="50"/></clipPath></defs><g clip-path="url(#a)"><g class="fills"><rect rx="0" ry="0" width="50" height="50" class="frame-background"/></g><g class="frame-children"><g class="fills"><rect rx="0" ry="0" x="-150" y="10" width="350" height="30" class="frame-background"/></g><g class="frame-children"><rect rx="0" ry="0" x="-143" y="13" width="336" height="24" style="fill: rgb(204, 204, 204); fill-opacity: 1;" class="fills"/><g class="strokes"><rect rx="0" ry="0" x="-143" y="13" width="336" height="24" style="fill: none; stroke-width: 3; stroke: rgb(0, 0, 0); stroke-opacity: 1;" class="stroke-shape"/></g><g class="fills"><rect rx="0" ry="0" x="14.652" y="17" width="20.697" height="16" class="frame-background"/></g><g class="frame-children"><g class="fills"><rect rx="0" ry="0" x="25.066" y="17" width="10.283" height="16" class="frame-background"/></g><g class="frame-children"><path d="M35.348 24.989c0 1.684-.178 3.12-.533 4.31-.341 1.19-.889 2.105-1.643 2.743-.754.639-1.749.958-2.986.958-1.75 0-3.044-.704-3.883-2.112-.825-1.422-1.237-3.388-1.237-5.899 0-1.669.163-3.098.49-4.288.342-1.205.889-2.119 1.643-2.743.754-.639 1.749-.958 2.987-.958 1.735 0 3.029.704 3.882 2.112.854 1.393 1.28 3.352 1.28 5.877Zm-8.021 0c0 2.032.213 3.556.64 4.572.427 1.001 1.166 1.502 2.219 1.502 1.038 0 1.777-.501 2.218-1.502.441-1.002.662-2.526.662-4.572 0-2.017-.221-3.526-.662-4.528-.441-1.016-1.18-1.524-2.218-1.524-1.053 0-1.792.508-2.219 1.524-.427 1.002-.64 2.511-.64 4.528Z" style="display: inline; font-weight: 500; font-size: 5.64444px; line-height: 1.25; font-family: &quot;Noto Sans&quot;; stroke-width: 0.264583; fill: rgb(0, 0, 0); fill-opacity: 1;" class="fills"/></g><g class="fills"><rect rx="0" ry="0" x="14.652" y="17.229" width="6.23" height="15.543" class="frame-background"/></g><g class="frame-children"><path d="M20.881 32.771h-2.24V22.453a39.559 39.559 0 0 1 .085-2.786 20.7 20.7 0 0 1-.576.566c-.199.174-.426.37-.682.587l-1.664 1.372-1.152-1.48 4.352-3.483h1.877Z" style="display: inline; font-weight: 500; font-size: 5.64444px; line-height: 1.25; font-family: &quot;Noto Sans&quot;; stroke-width: 0.264583; fill: rgb(0, 0, 0); fill-opacity: 1;" class="fills"/></g></g></g></g></g></svg>

<svg width="50" xmlns="http://www.w3.org/2000/svg" height="50" id="screenshot-c079da11-ea97-8013-8006-2a6d45643835" viewBox="0 0 50 50" xmlns:xlink="http://www.w3.org/1999/xlink" fill="none" version="1.1"><g id="shape-c079da11-ea97-8013-8006-2a6d45643835"><g class="frame-container-wrapper"><g class="frame-container-blur"><g class="frame-container-shadows"><g fill="none"><g class="fills" id="fills-c079da11-ea97-8013-8006-2a6d45643835"><rect rx="0" ry="0" x="0" y="0" width="50" height="49.999999999999886" transform="matrix(1.000000, 0.000000, 0.000000, 1.000000, 0.000000, 0.000000)" class="frame-background"/></g><g class="frame-children"><g id="shape-c079da11-ea97-8013-8006-2a6d45643836"><g class="frame-container-wrapper"><g class="frame-container-blur"><g class="frame-container-shadows"><g fill="none"><g class="fills" id="fills-c079da11-ea97-8013-8006-2a6d45643836"><rect rx="0" ry="0" x="3" y="12.999999999999886" width="44" height="24" transform="matrix(1.000000, 0.000000, 0.000000, 1.000000, 0.000000, 0.000000)" class="frame-background"/></g><g class="frame-children"><g id="shape-c079da11-ea97-8013-8006-2a6d45643837"><g class="fills" id="fills-c079da11-ea97-8013-8006-2a6d45643837"><rect rx="0" ry="0" x="3" y="12.999999999999886" transform="matrix(1.000000, 0.000000, 0.000000, 1.000000, 0.000000, 0.000000)" width="44" height="24" style="fill: rgb(204, 204, 204); fill-opacity: 1;"/></g><g id="strokes-18cb738f-1f02-80ab-8006-2a6e91d5de40-c079da11-ea97-8013-8006-2a6d45643837" class="strokes"><g class="stroke-shape"><rect rx="0" ry="0" x="3" y="12.999999999999886" transform="matrix(1.000000, 0.000000, 0.000000, 1.000000, 0.000000, 0.000000)" width="44" height="24" style="fill: none; stroke-width: 3; stroke: rgb(0, 0, 0); stroke-opacity: 1;"/></g></g></g></g></g></g></g></g></g><g id="shape-c079da11-ea97-8013-8006-2a6dc069da94"><g class="frame-container-wrapper"><g class="frame-container-blur"><g class="frame-container-shadows"><g fill="none"><g class="fills" id="fills-c079da11-ea97-8013-8006-2a6dc069da94"><rect rx="0" ry="0" x="14.651730836559224" y="16.999999999999886" width="20.69653832688155" height="16" transform="matrix(1.000000, 0.000000, 0.000000, 1.000000, 0.000000, 0.000000)" class="frame-background"/></g><g class="frame-children"><g id="shape-c079da11-ea97-8013-8006-2a6dc069da95"><g class="frame-container-wrapper"><g class="frame-container-blur"><g class="frame-container-shadows"><g fill="none"><g class="fills" id="fills-c079da11-ea97-8013-8006-2a6dc069da95"><rect rx="0" ry="0" x="25.065540321748315" y="16.999999999999886" width="10.282728841692432" height="16" transform="matrix(1.000000, 0.000000, 0.000000, 1.000000, 0.000000, 0.000000)" class="frame-background"/></g><g class="frame-children"><g id="shape-c079da11-ea97-8013-8006-2a6dc069da97"><g class="fills" id="fills-c079da11-ea97-8013-8006-2a6dc069da97"><path d="M35.348,24.989C35.348,26.673,35.170,28.109,34.815,29.299C34.474,30.489,33.926,31.404,33.172,32.042C32.418,32.681,31.423,33.000,30.186,33.000C28.436,33.000,27.142,32.296,26.303,30.888C25.478,29.466,25.066,27.500,25.066,24.989C25.066,23.320,25.229,21.891,25.556,20.701C25.898,19.496,26.445,18.582,27.199,17.958C27.953,17.319,28.948,17.000,30.186,17.000C31.921,17.000,33.215,17.704,34.068,19.112C34.922,20.505,35.348,22.464,35.348,24.989ZL35.348,24.989ZM27.327,24.989C27.327,27.021,27.540,28.545,27.967,29.561C28.394,30.562,29.133,31.063,30.186,31.063C31.224,31.063,31.963,30.562,32.404,29.561C32.845,28.559,33.066,27.035,33.066,24.989C33.066,22.972,32.845,21.463,32.404,20.461C31.963,19.445,31.224,18.937,30.186,18.937C29.133,18.937,28.394,19.445,27.967,20.461C27.540,21.463,27.327,22.972,27.327,24.989ZL27.327,24.989Z" style="display: inline; font-weight: 500; font-size: 5.64444px; line-height: 1.25; font-family: &quot;Noto Sans&quot;; stroke-width: 0.264583; fill: rgb(0, 0, 0); fill-opacity: 1;"/></g></g></g></g></g></g></g></g><g id="shape-c079da11-ea97-8013-8006-2a6dc069da96"><g class="frame-container-wrapper"><g class="frame-container-blur"><g class="frame-container-shadows"><g fill="none"><g class="fills" id="fills-c079da11-ea97-8013-8006-2a6dc069da96"><rect rx="0" ry="0" x="14.651730836559196" y="17.228569059477536" width="6.229554566642037" height="15.5428618810447" transform="matrix(1.000000, 0.000000, 0.000000, 1.000000, 0.000000, 0.000000)" class="frame-background"/></g><g class="frame-children"><g id="shape-c079da11-ea97-8013-8006-2a6dc069da98"><g class="fills" id="fills-c079da11-ea97-8013-8006-2a6dc069da98"><path d="M20.881,32.771L18.641,32.771L18.641,22.453C18.641,21.916,18.648,21.423,18.662,20.973C18.677,20.523,18.698,20.088,18.726,19.667C18.542,19.855,18.350,20.044,18.150,20.233C17.951,20.407,17.724,20.603,17.468,20.820L15.804,22.192L14.652,20.712L19.004,17.229L20.881,17.229Z" style="display: inline; font-weight: 500; font-size: 5.64444px; line-height: 1.25; font-family: &quot;Noto Sans&quot;; stroke-width: 0.264583; fill: rgb(0, 0, 0); fill-opacity: 1;"/></g></g></g></g></g></g></g></g></g></g></g></g></g></g></g></g></g></g></g></g></svg>
